packages/kaspersky-hexa-ui-icons/src/iconsSVGs/16/Youtube.svg

<svg width="16" height="16" viewBox="0 0 16 16" fill="none" xmlns="http://www.w3.org/2000/svg">
<mask id="path-1-inside-1_20761_8103" fill="white">
<path fill-rule="evenodd" clip-rule="evenodd" d="M3.07831 3.70484C2.49464 3.81276 2.04239 4.23748 1.91174 4.8165C1.75474 5.51236 1.58325 6.59417 1.58325 7.99992C1.58325 9.38503 1.74974 10.4741 1.90482 11.1882C2.03794 11.8011 2.52125 12.2471 3.14053 12.3464C4.05353 12.4928 5.63556 12.6666 7.99987 12.6666C10.4096 12.6666 12.0066 12.4634 12.911 12.2969C13.5009 12.1883 13.9565 11.7572 14.0875 11.1718C14.2447 10.4697 14.4166 9.38524 14.4166 7.99992C14.4166 6.6146 14.2447 5.5301 14.0875 4.82801C13.9565 4.24267 13.5009 3.81154 12.911 3.70292C12.0066 3.53639 10.4096 3.33325 7.99987 3.33325C5.58093 3.33325 3.98085 3.53796 3.07831 3.70484ZM10.0333 8.17312C10.1666 8.09614 10.1666 7.90369 10.0333 7.82671L7.13325 6.15239C6.99992 6.07541 6.83325 6.17164 6.83325 6.3256V9.67423C6.83325 9.82819 6.99992 9.92441 7.13325 9.84743L10.0333 8.17312Z"/>
</mask>
<path fill-rule="evenodd" clip-rule="evenodd" d="M3.07831 3.70484C2.49464 3.81276 2.04239 4.23748 1.91174 4.8165C1.75474 5.51236 1.58325 6.59417 1.58325 7.99992C1.58325 9.38503 1.74974 10.4741 1.90482 11.1882C2.03794 11.8011 2.52125 12.2471 3.14053 12.3464C4.05353 12.4928 5.63556 12.6666 7.99987 12.6666C10.4096 12.6666 12.0066 12.4634 12.911 12.2969C13.5009 12.1883 13.9565 11.7572 14.0875 11.1718C14.2447 10.4697 14.4166 9.38524 14.4166 7.99992C14.4166 6.6146 14.2447 5.5301 14.0875 4.82801C13.9565 4.24267 13.5009 3.81154 12.911 3.70292C12.0066 3.53639 10.4096 3.33325 7.99987 3.33325C5.58093 3.33325 3.98085 3.53796 3.07831 3.70484ZM10.0333 8.17312C10.1666 8.09614 10.1666 7.90369 10.0333 7.82671L7.13325 6.15239C6.99992 6.07541 6.83325 6.17164 6.83325 6.3256V9.67423C6.83325 9.82819 6.99992 9.92441 7.13325 9.84743L10.0333 8.17312Z" fill="black" stroke="black" stroke-width="4" mask="url(#path-1-inside-1_20761_8103)"/>
</svg>

<svg xmlns="http://www.w3.org/2000/svg" width="16" height="16" fill="none" viewBox="0 0 16 16"><mask id="a" fill="#fff"><path fill-rule="evenodd" d="M3.0783 3.7048c-.5837.108-1.036.5327-1.1666 1.1117-.157.6959-.3284 1.7777-.3284 3.1834 0 1.3851.1664 2.4742.3215 3.1883.1331.6129.6165 1.0589 1.2357 1.1582.913.1464 2.495.3202 4.8594.3202 2.4097 0 4.0067-.2032 4.9111-.3697.5899-.1086 1.0455-.5397 1.1765-1.1251.1572-.7021.3291-1.7866.3291-3.1719s-.1719-2.4698-.3291-3.1719c-.131-.5853-.5866-1.0165-1.1765-1.125-.9044-.1666-2.5014-.3697-4.9111-.3697-2.419 0-4.019.2047-4.9216.3715m6.955 4.4683c.1333-.077.1333-.2694 0-.3464l-2.9-1.6743c-.1334-.077-.3.0192-.3.1732v3.3486c0 .154.1666.2502.3.1732z" clip-rule="evenodd"/></mask><path fill="#000" fill-rule="evenodd" stroke="#000" stroke-width="4" d="M3.0783 3.7048c-.5837.108-1.036.5327-1.1666 1.1117-.157.6959-.3284 1.7777-.3284 3.1834 0 1.3851.1664 2.4742.3215 3.1883.1331.6129.6165 1.0589 1.2357 1.1582.913.1464 2.495.3202 4.8594.3202 2.4097 0 4.0067-.2032 4.9111-.3697.5899-.1086 1.0455-.5397 1.1765-1.1251.1572-.7021.3291-1.7866.3291-3.1719s-.1719-2.4698-.3291-3.1719c-.131-.5853-.5866-1.0165-1.1765-1.125-.9044-.1666-2.5014-.3697-4.9111-.3697-2.419 0-4.019.2047-4.9216.3715Zm6.955 4.4683c.1333-.077.1333-.2694 0-.3464l-2.9-1.6743c-.1334-.077-.3.0192-.3.1732v3.3486c0 .154.1666.2502.3.1732z" clip-rule="evenodd" mask="url(#a)"/></svg>
